X: 39773
T: Thank You Sean
R: reel
M: 4/4
K: Edorian
B2 E2 E2 GA|B E2 B effg|fBBA Bcd(c|c)eBA GA F2|
B2 E2 E2 GA|B E2 B effg|fBBf gBfg|feed e3 d:|
|:B3 A Bcde|fBBA Bcde|cFFc FF (c2|c)def dcBA|F2 BA Bcde|
fBBA Bcde|1 fBBf BB (f2|f)faB gfed:|2 fBBf BB (b2|b)afa edcA||

